X: 19
T: Minun kultani
O: Trad Finland
Z: John Chambers <jc@trillian.mit.edu>
M: 2/4
L: 1/8
K: Em
|: "Em"GG "B7"FF/F/ | "C"EE "Am"F2 | "B7"B,B, ^C^D |1 "Em"E2 "B7"F2 :|2 "Em"E2 "D7"F2 ||
|: "G"B2 "B7"AA/F/ | "Em"GG "Am"F2 | "B7"B,B, ^C^D |1 "Em"E2 "D7"F2 :|2 "Em"E2 E2 |]
%%sep 1 1 10cm
